X:50
T:Mais qu'il vous legne
C:Jabomy (Jacob de Senleches)
Q:"Ballade"
L:1/8
K:C
V:1
c2d4 | c2g4 | f2fefd | e2c2z2 | ag2f ed | c2d4 |
c2cBcA | B2z2z2 | Bcd2c2 | e2fefg | e2z2z2 | gfe2d2 | c2B4 |
AB cz AB | Hc6 |: g4f2 | g2a4 | g2agfe | d2z2z2 | f4e2 | f2g4 |
^f2gfed | c2z2z2 | e"(#)"fg2"(#)"f2 | g2g"(=)"fed |1 c2dc2B | Hd6 :|2 c2dc2B | Hc6 |]
V:2
F6 | C6 | F6 | C6 | c4-cB | A2G4 |
C6 | D4EF | G4A2 | E2D4 | A2cBcA | G6 | A2G4 |
F2E2D2 | HC6 |: c2B2A2 | G2F4 | G2D4 | G2cBAG | F4G2 | F2E4 |
D2C4 | ABc2B2 | cB-B2A2 | G2G2>B2 | AGF2E2 | HD6 :| A2E2D2 | HC6 |]





